www/assets/icons/panorama_horizontal_select.svg

<svg xmlns="http://www.w3.org/2000/svg" width="24" height="24" viewBox="0 0 24 24" fill='currentColor'><path d="M21.43 4c-.1 0-.2.02-.31.06C18.18 5.16 15.09 5.7 12 5.7s-6.18-.55-9.12-1.64A1 1 0 0 0 2.57 4c-.34 0-.57.23-.57.63v14.75c0 .39.23.62.57.62.1 0 .2-.02.31-.06 2.94-1.1 6.03-1.64 9.12-1.64s6.18.55 9.12 1.64c.11.04.21.06.31.06.33 0 .57-.23.57-.63V4.63c0-.4-.24-.63-.57-.63"/></svg>

<svg width="24" height="24" viewBox="0 0 24 24" xmlns="http://www.w3.org/2000/svg" fill='currentColor'><path d="M21.43 4C21.33 4 21.23 4.02 21.12 4.06C18.18 5.16 15.09 5.7 12 5.7C8.91 5.7 5.82 5.15 2.88 4.06C2.77 4.02 2.66 4 2.57 4C2.23 4 2 4.23 2 4.63V19.38C2 19.77 2.23 20 2.57 20C2.67 20 2.77 19.98 2.88 19.94C5.82 18.84 8.91 18.3 12 18.3C15.09 18.3 18.18 18.85 21.12 19.94C21.23 19.98 21.33 20 21.43 20C21.76 20 22 19.77 22 19.37V4.63C22 4.23 21.76 4 21.43 4Z"/></svg>
